static/img/kroki/f871fbd7ffea005d2809b3184f8e2066.svg

<?xml version="1.0" encoding="us-ascii" standalone="no"?><svg xmlns="http://www.w3.org/2000/svg" xmlns:xlink="http://www.w3.org/1999/xlink" contentStyleType="text/css" height="152px" preserveAspectRatio="none" style="width:443px;height:152px;" version="1.1" viewBox="0 0 443 152" width="443px" zoomAndPan="magnify"><defs/><g><!--class aws_api_gateway_domain_name--><g id="elem_aws_api_gateway_domain_name"><rect codeLine="22" fill="#3D176E" height="39.7891" id="aws_api_gateway_domain_name" rx="2.5" ry="2.5" style="stroke:#000D19;stroke-width:0.5;" width="319" x="63" y="7"/><ellipse cx="78" cy="26.8945" fill="#ADD1B2" rx="11" ry="11" style="stroke:#181818;stroke-width:1.0;"/><path d="M80.9688,32.5352 Q80.3906,32.832 79.75,32.9727 Q79.1094,33.1289 78.4063,33.1289 Q75.9063,33.1289 74.5781,31.4883 Q73.2656,29.832 73.2656,26.707 Q73.2656,23.582 74.5781,21.9258 Q75.9063,20.2695 78.4063,20.2695 Q79.1094,20.2695 79.75,20.4258 Q80.4063,20.582 80.9688,20.8789 L80.9688,23.5977 Q80.3438,23.0195 79.75,22.7539 Q79.1563,22.4727 78.5313,22.4727 Q77.1875,22.4727 76.5,23.5508 Q75.8125,24.6133 75.8125,26.707 Q75.8125,28.8008 76.5,29.8789 Q77.1875,30.9414 78.5313,30.9414 Q79.1563,30.9414 79.75,30.6758 Q80.3438,30.3945 80.9688,29.8164 L80.9688,32.5352 Z " fill="#000000"/><text fill="#D9B8FF" font-family="Helvetica" font-size="17" lengthAdjust="spacing" textLength="277" x="97" y="32.7798">aws_api_gateway_domain_name</text></g><!--class aws_route53_zone--><g id="elem_aws_route53_zone"><rect codeLine="24" fill="#3D176E" height="39.7891" id="aws_route53_zone" rx="2.5" ry="2.5" style="stroke:#000D19;stroke-width:0.5;" width="199" x="7" y="106.79"/><ellipse cx="22" cy="126.6845" fill="#ADD1B2" rx="11" ry="11" style="stroke:#181818;stroke-width:1.0;"/><path d="M24.9688,132.3252 Q24.3906,132.622 23.75,132.7627 Q23.1094,132.9189 22.4063,132.9189 Q19.9063,132.9189 18.5781,131.2783 Q17.2656,129.622 17.2656,126.497 Q17.2656,123.372 18.5781,121.7158 Q19.9063,120.0595 22.4063,120.0595 Q23.1094,120.0595 23.75,120.2158 Q24.4063,120.372 24.9688,120.6689 L24.9688,123.3877 Q24.3438,122.8095 23.75,122.5439 Q23.1563,122.2627 22.5313,122.2627 Q21.1875,122.2627 20.5,123.3408 Q19.8125,124.4033 19.8125,126.497 Q19.8125,128.5908 20.5,129.6689 Q21.1875,130.7314 22.5313,130.7314 Q23.1563,130.7314 23.75,130.4658 Q24.3438,130.1845 24.9688,129.6064 L24.9688,132.3252 Z " fill="#000000"/><text fill="#D9B8FF" font-family="Helvetica" font-size="17" lengthAdjust="spacing" textLength="157" x="41" y="132.5698">aws_route53_zone</text></g><!--class aws_vpc_endpoint--><g id="elem_aws_vpc_endpoint"><rect codeLine="26" fill="#3D176E" height="39.7891" id="aws_vpc_endpoint" rx="2.5" ry="2.5" style="stroke:#000D19;stroke-width:0.5;" width="195" x="241" y="106.79"/><ellipse cx="256" cy="126.6845" fill="#ADD1B2" rx="11" ry="11" style="stroke:#181818;stroke-width:1.0;"/><path d="M258.9688,132.3252 Q258.3906,132.622 257.75,132.7627 Q257.1094,132.9189 256.4063,132.9189 Q253.9063,132.9189 252.5781,131.2783 Q251.2656,129.622 251.2656,126.497 Q251.2656,123.372 252.5781,121.7158 Q253.9063,120.0595 256.4063,120.0595 Q257.1094,120.0595 257.75,120.2158 Q258.4063,120.372 258.9688,120.6689 L258.9688,123.3877 Q258.3438,122.8095 257.75,122.5439 Q257.1563,122.2627 256.5313,122.2627 Q255.1875,122.2627 254.5,123.3408 Q253.8125,124.4033 253.8125,126.497 Q253.8125,128.5908 254.5,129.6689 Q255.1875,130.7314 256.5313,130.7314 Q257.1563,130.7314 257.75,130.4658 Q258.3438,130.1845 258.9688,129.6064 L258.9688,132.3252 Z " fill="#000000"/><text fill="#D9B8FF" font-family="Helvetica" font-size="17" lengthAdjust="spacing" textLength="153" x="275" y="132.5698">aws_vpc_endpoint</text></g><!--link aws_api_gateway_domain_name to aws_route53_zone--><g id="link_aws_api_gateway_domain_name_aws_route53_zone"><path codeLine="28" d="M199.58,47.22 C180.68,63.15 153.8,85.81 133.79,102.68 " fill="none" id="aws_api_gateway_domain_name-to-aws_route53_zone" style="stroke:#1A83AF;stroke-width:2.0;"/><polygon fill="#1A83AF" points="130.37,106.41,139.8348,103.6866,134.1994,103.195,134.6909,97.5596,130.37,106.41" style="stroke:#1A83AF;stroke-width:2.0;"/></g><!--link aws_api_gateway_domain_name to aws_vpc_endpoint--><g id="link_aws_api_gateway_domain_name_aws_vpc_endpoint"><path codeLine="29" d="M245.42,47.22 C264.32,63.15 291.2,85.81 311.21,102.68 " fill="none" id="aws_api_gateway_domain_name-to-aws_vpc_endpoint" style="stroke:#1A83AF;stroke-width:2.0;"/><polygon fill="#1A83AF" points="314.63,106.41,310.3091,97.5596,310.8006,103.195,305.1652,103.6866,314.63,106.41" style="stroke:#1A83AF;stroke-width:2.0;"/></g><!--SRC=[bP1DQy9048Rl_ee5pu9fiEgba0hINgJKtae9OtPM5vFPC3iQjFI_rsXRjabLUjttsVTZLbQZmgAKdIgmM23xZbzRAe6XK0cpgoOkTwowne29XqrnwaYk0ZCeK3rWlaMn6JI9bvNDreJUgvj0keTilMIt8Nso5mRo1mb90cgIW_U92Dl5HZ0eeyUBaJ5DicdQZNKqlCKMvbWZVo7zVbz7uoPoDUhYxXzYRlUeel1eCoVOgjcAE58NMzP4KB8rz5i_s_49jBQqL8FWxVdKYGdvr_jy1TfLDMqWzs6C5sHqiYjnqbg5uv4smp_XntDmLbzEGULJA6sw1C4ATgbs1LXAgTxotla8g8E5u21EzuwQqhRCKYHTEajob2wvzbwxKJAAa-bRxwvb_B-VOUud]--></g></svg>

<svg xmlns="http://www.w3.org/2000/svg" width="443" height="152" preserveAspectRatio="none" style="width:443px;height:152px"><rect width="319" height="39.789" x="63" y="7" fill="#3D176E" rx="2.5" ry="2.5" style="stroke:#000d19;stroke-width:.5"/><circle cx="78" cy="26.895" r="11" fill="#ADD1B2" style="stroke:#181818;stroke-width:1"/><path d="M80.969 32.535q-.578.297-1.219.438-.64.156-1.344.156-2.5 0-3.828-1.64-1.312-1.657-1.312-4.782t1.312-4.781q1.328-1.656 3.828-1.656.703 0 1.344.156.656.156 1.219.453v2.719q-.625-.578-1.219-.844-.594-.281-1.219-.281-1.344 0-2.031 1.078-.688 1.062-.688 3.156 0 2.094.688 3.172.688 1.062 2.031 1.062.625 0 1.219-.265.594-.281 1.219-.86v2.72Z"/><text x="97" y="32.78" fill="#D9B8FF" font-family="Helvetica" font-size="17" textLength="277">aws_api_gateway_domain_name</text><rect width="199" height="39.789" x="7" y="106.79" fill="#3D176E" rx="2.5" ry="2.5" style="stroke:#000d19;stroke-width:.5"/><circle cx="22" cy="126.684" r="11" fill="#ADD1B2" style="stroke:#181818;stroke-width:1"/><path d="M24.969 132.325q-.578.297-1.219.438-.64.156-1.344.156-2.5 0-3.828-1.64-1.312-1.657-1.312-4.782t1.312-4.781q1.328-1.656 3.828-1.656.703 0 1.344.156.656.156 1.219.453v2.719q-.625-.579-1.219-.844-.594-.281-1.219-.281-1.343 0-2.031 1.078-.688 1.062-.688 3.156 0 2.094.688 3.172.688 1.062 2.031 1.062.625 0 1.219-.265.594-.281 1.219-.86v2.72Z"/><text x="41" y="132.57" fill="#D9B8FF" font-family="Helvetica" font-size="17" textLength="157">aws_route53_zone</text><rect width="195" height="39.789" x="241" y="106.79" fill="#3D176E" rx="2.5" ry="2.5" style="stroke:#000d19;stroke-width:.5"/><circle cx="256" cy="126.684" r="11" fill="#ADD1B2" style="stroke:#181818;stroke-width:1"/><path d="M258.969 132.325q-.578.297-1.219.438-.64.156-1.344.156-2.5 0-3.828-1.64-1.312-1.657-1.312-4.782t1.312-4.781q1.328-1.656 3.828-1.656.703 0 1.344.156.656.156 1.219.453v2.719q-.625-.579-1.219-.844-.594-.281-1.219-.281-1.344 0-2.031 1.078-.688 1.062-.688 3.156 0 2.094.688 3.172.688 1.062 2.031 1.062.625 0 1.219-.265.594-.281 1.219-.86v2.72Z"/><text x="275" y="132.57" fill="#D9B8FF" font-family="Helvetica" font-size="17" textLength="153">aws_vpc_endpoint</text><path fill="none" d="M199.58 47.22c-18.9 15.93-45.78 38.59-65.79 55.46" style="stroke:#1a83af;stroke-width:2"/><path fill="#1A83AF" d="m130.37 106.41 9.465-2.723-5.636-.492.492-5.635-4.321 8.85z" style="stroke:#1a83af;stroke-width:2"/><path fill="none" d="M245.42 47.22c18.9 15.93 45.78 38.59 65.79 55.46" style="stroke:#1a83af;stroke-width:2"/><path fill="#1A83AF" d="m314.63 106.41-4.32-8.85.49 5.635-5.635.492 9.465 2.723z" style="stroke:#1a83af;stroke-width:2"/></svg>
